assets/Fast reverse button/Flat/fast_reverse_button_flat.svg

<svg width="32" height="32" viewBox="0 0 32 32" fill="none" xmlns="http://www.w3.org/2000/svg">
<path d="M2 6C2 3.79086 3.79086 2 6 2H26C28.2091 2 30 3.79086 30 6V26C30 28.2091 28.2091 30 26 30H6C3.79086 30 2 28.2091 2 26V6Z" fill="#00A6ED"/>
<path d="M6.74885 15.2794C6.34002 15.6728 6.34002 16.3272 6.74886 16.7206L13.3066 23.0308C13.9419 23.6422 15 23.1919 15 22.3103V16.9623L21.3066 23.0308C21.9419 23.6422 23 23.1919 23 22.3103L23 9.6898C23 8.80814 21.9419 8.3579 21.3066 8.96922L15 15.0378V9.6898C15 8.80814 13.9419 8.3579 13.3066 8.96922L6.74885 15.2794Z" fill="white"/>
</svg>

<svg xmlns="http://www.w3.org/2000/svg" width="32" height="32" fill="none"><path fill="#00A6ED" d="M2 6a4 4 0 0 1 4-4h20a4 4 0 0 1 4 4v20a4 4 0 0 1-4 4H6a4 4 0 0 1-4-4V6Z"/><path fill="#fff" d="M6.749 15.28a1 1 0 0 0 0 1.44l6.558 6.31c.635.612 1.693.162 1.693-.72v-5.348l6.307 6.069c.635.611 1.693.16 1.693-.72V9.69c0-.882-1.058-1.332-1.693-.72L15 15.037V9.69c0-.882-1.058-1.332-1.693-.72l-6.558 6.31Z"/></svg>
